src/assets/wallet-verified.svg

<svg fill="none" height="25" viewBox="0 0 25 25" width="25" xmlns="http://www.w3.org/2000/svg"><g stroke="#101010" stroke-linecap="round" stroke-linejoin="round"><path d="m17.8295 7.54997c-.24-.04-.49-.04999-.75-.04999h-9.99997c-.28 0-.55.02-.81.06.14-.28.34-.53997.58-.77997l3.24997-3.26001c1.37-1.36 3.59-1.36 4.96 0l1.75 1.76996c.64.63.98 1.43001 1.02 2.26001z"/><path d="m10.0781 22.5h7c3 0 5-2 5-5v-5c0-2.74-1.67-4.65001-4.25-4.95001-.24-.04-.49-.04999-.75-.04999h-9.99998c-.28 0-.55.02-.81.06-2.55.32-4.19 2.22-4.19 4.94v2"/><path d="m22.0781 13h-3c-1.1 0-2 .9-2 2s.9 2 2 2h3"/></g><path d="m5.07812 15.5c-2.21 0-4 1.79-4 4 0 .75.21001 1.46.58001 2.06.68999 1.16 1.95999 1.94 3.41999 1.94 1.46001 0 2.73001-.78 3.42001-1.94.36999-.6.57999-1.31.57999-2.06 0-2.21-1.78999-4-4-4zm1.97 3.67-2.12999 1.97c-.14.13-.33001.2-.51001.2-.19 0-.37999-.07-.53-.22l-.99-.99c-.29-.29-.29-.77 0-1.06s.77-.29 1.06 0l.48.48 1.6-1.48c.3-.28.78001-.26 1.06001.04s.25999.78-.04001 1.06z" fill="#a5f59c"/></svg>

<svg width="25" height="25" viewBox="0 0 25 25" fill="none" xmlns="http://www.w3.org/2000/svg">
    <path
        d="M17.8295 7.54997C17.5895 7.50997 17.3395 7.49998 17.0795 7.49998H7.07953C6.79953 7.49998 6.52953 7.51998 6.26953 7.55998C6.40953 7.27998 6.60953 7.02001 6.84953 6.78001L10.0995 3.52C11.4695 2.16 13.6895 2.16 15.0595 3.52L16.8095 5.28996C17.4495 5.91996 17.7895 6.71997 17.8295 7.54997Z"
        stroke="#101010" stroke-linecap="round" stroke-linejoin="round" />
    <path
        d="M10.0781 22.5H17.0781C20.0781 22.5 22.0781 20.5 22.0781 17.5V12.5C22.0781 9.76 20.4081 7.84999 17.8281 7.54999C17.5881 7.50999 17.3381 7.5 17.0781 7.5H7.07812C6.79812 7.5 6.52812 7.52 6.26812 7.56C3.71812 7.88 2.07812 9.78 2.07812 12.5V14.5"
        stroke="#101010" stroke-linecap="round" stroke-linejoin="round" />
    <path
        d="M22.0781 13H19.0781C17.9781 13 17.0781 13.9 17.0781 15C17.0781 16.1 17.9781 17 19.0781 17H22.0781"
        stroke="#101010" stroke-linecap="round" stroke-linejoin="round" />
    <path
        d="M5.07812 15.5C2.86812 15.5 1.07812 17.29 1.07812 19.5C1.07812 20.25 1.28813 20.96 1.65813 21.56C2.34812 22.72 3.61812 23.5 5.07812 23.5C6.53813 23.5 7.80813 22.72 8.49813 21.56C8.86812 20.96 9.07812 20.25 9.07812 19.5C9.07812 17.29 7.28813 15.5 5.07812 15.5ZM7.04812 19.17L4.91813 21.14C4.77813 21.27 4.58812 21.34 4.40812 21.34C4.21812 21.34 4.02813 21.27 3.87812 21.12L2.88812 20.13C2.59812 19.84 2.59812 19.36 2.88812 19.07C3.17812 18.78 3.65812 18.78 3.94812 19.07L4.42812 19.55L6.02812 18.07C6.32812 17.79 6.80813 17.81 7.08813 18.11C7.36813 18.41 7.34812 18.89 7.04812 19.17Z"
        fill="#A5F59C" />
</svg>
